!! 00000] TT[WS
!!!OTL: Buai yinzi buai qian
!!!ARE: Asia, China, Shanxi Hequ
!! Ethnic Group: Han
!! WII, 19 (2)
!!!SCT: J0423
!!!YEM: Copyright 1995, estate of Helmut Schaffrath.
**kern
*ICvox
*Ivox
*M2/4
*k[b-e-]
*B-:
{8ff
16bb-
16gg
8ff
8ff
=1
8bb-
8ccc
8fff
8ccc
=2
8ff
8gg
8ff
16ff
16dd
=3
2cc}
=4
{8ff
16bb-
16gg
8ff
8ff
=5
8bb-
8ccc
8fff
8ccc
=6
8fff
8gg
8ff
16ff
16dd
=7
2ff}
==
!!!AGN: Shange, Shanqu. Qingge
!!!ONB: ESAC (Essen Associative Code) Database: CHINA
!!!AMT: simple duple
!!!AIN: vox
!!!EED: Helmut Schaffrath
!!!EEV: 1.0
*-
